X:1
T:The Watchman's Call
T:William Walker, 1835 A minor             Alto by William Walker, 1867
T:Transcribed from Southern Harmony, 1835, and Christian Harmony, 1867.
T:Anonymous author, First published in Southern Harmony 88. 88. 88. 88. (L. M. D.)
%%score [ 1 2 3 4 ]
L:1/8
Q:1/4=110
M:2/2
K:G
V:1 treble nm="Tr." snm="Tr."
V:2 treble nm="A." snm="A."
V:3 treble-8 nm="T." snm="T."
V:4 bass nm="B." snm="B."
V:1
"_The watchmen blow the trumpet round, Come, listen to  the  so – lemn sound, \nAnd be assured  there's danger nigh;  How many  are      prepared     to      die?""_1.{" B4 | %1
 G2 G2 G2 A2 | B2 B2 A4 || G4 B2 B2 | B2 AB d3 d |1"_}" B4 :|2 B8 |: %7
 z4"_Your days on earth  will  soon be  o'er,  And   time  to  you return  no  more;" B4 | %8
 B2 A2 G2 B2 | d2 d2 B2 B2 | dB A2 G2 B2 | d2 d2 B4 || %12
"_1. O  think  thou hast  a  soul  to save,  What  are  thy  hopes  beyond  the  grave?" d4 B2 B2 | %13
 G2 A2 B2 B2 | A4 G4 | B2 B2 BA B2 | d3 [Ad] B4 :| %17
V:2
"_Come old and young, come rich and poor; You’ll all be called to stand before \nThe God that made the earth and sea. And there proclaim his  ma  – jes  – ty.""_2.{" G4 | %1
 G2 G2 G2 F2 | E2 E2 F4 || D4 G2 G2 | G2 AG F3 F |1"_}" [DG]4 :|2 [DG]8 |: %7
 z4"_Will you remain quite unconcerned, While for your souls the watchmen mourn:" D4 | %8
 G2 F2 E2 E2 | F2 F2 G2 G2 | G2 A2 G2 G2 | A2 A2 G4 || %12
"_2. They weep to think how you will stand With frightful ghosts at God’s left hand." G4 G2 G2 | %13
 G2 D2 E2 E2 | F4 D4 | G2 G2 G2 G2 | F3 F [DG]4 :| %17
V:3
"_O mortals! view the dream of life,  And see how thousands    end    the   strife, \nWho though convinced do still delay,  Till death ensues  and    drags  a  –  way;""_3.{" G4 | %1
 B2 B2 B2 A2 | G2 G2 d4 || d4 e2 e2 | ed B2 A3 F |1"_}" G4 :|2 G8 |: %7
 z4"_Will    you  for   fancied  earthly  toys    Deprive yourselves of heavenly joys" d4 | %8
 de f2 g2 e2 | f2 d2 dB d2 | de f2 g2 e2 | f2 d2 e4 || %12
"_3. And  will the calls  you have to –day    Be   slighted     still    and    pass  a – way?" g4 d2 d2 | %13
 B2 A2 G2 G2 | d4 d4 | e2 e2 ed B2 | A3 F G4 :| %17
V:4
 G,4 | E,2 E,2 E,2 D,2 | G,2 G,2 D,4 || G,4 E,2 E,2 | E,D, E,2 D,3 D, |1 G,,4 :|2 G,,8 |: z4 G,4 | %8
 D,2 D,2 G,2 G,2 | A,2 F,2 D,2 D,2 | G,2 F,2 E,2 E,2 | D,2 D,2 E,4 || %12
"_____________________________________________________________________________\nEdited by B. C. Johnston, 2018.\n   Whole piece transposed down from A Major to G Major, as suggested by Jackson 1952.\nA folk hymn (Jackson 1952, No. 175)." G,4 D,2 D,2 | %13
 E,2 D,2 G,2 G,2 | D,4 G,4 | E,2 E,2 E,D, E,2 | D,3 D, G,,4 :| %17

